outputs/icons/audio_video/volume_up_round.svg

<svg xmlns="http://www.w3.org/2000/svg" width="1200" height="1200" fill="none"><g clip-path="url(#a)"><path fill="#000" d="M150 500.005v200c0 27.5 22.5 50 50 50h150l164.5 164.5c31.5 31.5 85.5 9 85.5-35.5V320.504c0-44.5-54-67-85.5-35.5l-164.5 165H200c-27.5 0-50 22.5-50 50.001m675 100c0-88.5-51-164.501-125-201.501v402.501c74-36.5 125-112.5 125-201M700 222.504v10c0 19.001 12.5 35.501 30 42.5 129 51.5 220 178.001 220 325.001s-91 273.5-220 325c-18 7-30 23.5-30 42.5v10c0 31.5 31.5 53.5 60.5 42.5 169.5-64.5 289.5-228 289.5-420 0-192.001-120-355.501-289.5-420.001-29-11.5-60.5 11-60.5 42.5"/></g><defs><clipPath id="a"><path fill="#fff" d="M0 0h1200v1200H0z"/></clipPath></defs></svg>

<svg width="1200" height="1200" viewBox="0 0 1200 1200" fill="none" xmlns="http://www.w3.org/2000/svg"><g clip-path="url(#clip0_231_5121)"><path d="M150 500.005V700.005C150 727.505 172.5 750.005 200 750.005H350L514.5 914.505C546 946.005 600 923.505 600 879.005V320.504C600 276.004 546 253.504 514.5 285.004L350 450.004H200C172.5 450.004 150 472.504 150 500.005ZM825 600.005C825 511.505 774 435.504 700 398.504V801.005C774 764.505 825 688.505 825 600.005ZM700 222.504V232.504C700 251.505 712.5 268.005 730 275.004C859 326.504 950 453.005 950 600.005C950 747.005 859 873.505 730 925.005C712 932.005 700 948.505 700 967.505V977.505C700 1009.005 731.5 1031.005 760.5 1020.005C930 955.505 1050 792.005 1050 600.005C1050 408.004 930 244.504 760.5 180.004C731.5 168.504 700 191.004 700 222.504Z" fill="black"/></g><defs><clipPath id="clip0_231_5121"><path width="24" fill="white" d="M0 0H1200V1200H0V0z"/></clipPath></defs></svg>
